X: 11
T: Dutchess of Devonshires Reel    (C)
O: 1779
R: reel
S: Image from Darlene Wigton, June 2017
Z: 2017 John Chambers <jc:trillian.mit.edu>
M: C|
L: 1/16
K: C
% - - - - - - - - - - - - - - - - - - - - - - - - - - - - -
|:\
"C"c4 "G7"(defd) "C"e2c2"(G7)"g2e2 | "C"c4 "G7"(defd) "C"e6g2 |\
"C"c4 "G7"(defd) "C"e2c2g2e2 | "(Am)"(c'2a2)"D7"(g2^f2) "G"g4g4 :|
|:\
"G7"G4 BGAB "C"cdef g2g2 | "G7"G4 (BGAB) "C"(cdef) g4 |\
"G7"G4 (BGAB) "C"(cdef) g2c'2 | "G"(gabc') d'2b2 "D7"d2^f2 "G"g4 :|
|:\
"C"g4 (efge) "G7"f2d2"C"e2c2 | "C"g4 (efge) "G7"f4 d4 |\
"C"g4 (efge) "G7"f2d2"C"e2c2 | "F"A2d2"G7"c2B2 "C"c4c4 :| [d'4G4]
% - - - - - - - - - - - - - - - - - - - - - - - - - - - - -

%%sep 1 1 500

